;FLAVOR:Marlin
;TIME:3191
;Filament used: 3.32133m
;Layer height: 0.25
;MINX:73.515
;MINY:91.293
;MINZ:0.25
;MAXX:139.797
;MAXY:128.712
;MAXZ:48
;Generated with Cura_SteamEngine 4.11.0
M140 S70
M105
M190 S70
M104 S230
M105
M109 S230
M82 ;absolute extrusion mode
; Ender 3 Custom Start G-code
G92 E0 ; Reset Extruder
G28 ; Home all axes
G29 ; Bed Levelling
G1 Z2.0 F3000 ; Move Z Axis up little to prevent scratching of Heat Bed
G1 X0.1 Y20 Z0.3 F5000.0 ; Move to start position
G1 X0.1 Y200.0 Z0.3 F1500.0 E15 ; Draw the first line
G1 X0.4 Y200.0 Z0.3 F5000.0 ; Move to side a little
G1 X0.4 Y20 Z0.3 F1500.0 E30 ; Draw the second line
G92 E0 ; Reset Extruder
G1 Z2.0 F3000 ; Move Z Axis up little to prevent scratching of Heat Bed
G1 X5 Y20 Z0.3 F5000.0 ; Move over to prevent blob squish
G92 E0
G92 E0
G1 F1500 E-1
;LAYER_COUNT:192
;LAYER:0
M107
G0 F9000 X77.932 Y95.625 Z0.25
;TYPE:SKIRT
G1 F1500 E0
G1 F3000 X78.863 Y94.912 E0.04875
G1 X79.504 Y94.506 E0.0803
G1 X79.79 Y94.339 E0.09407
G1 X80.604 Y93.91 E0.13232
G1 X81.385 Y93.578 E0.16761
G1 X81.541 Y93.519 E0.17454
G1 X82.72 Y93.15 E0.2259
G1 X82.98 Y93.085 E0.23704
G1 X84.18 Y92.858 E0.28782
G1 X84.249 Y92.849 E0.29071
G1 X84.792 Y92.792 E0.31341
G1 X85.737 Y92.718 E0.35282
G1 X108.107 Y91.355 E1.28458
G1 X108.315 Y91.344 E1.29324
G1 X109.19 Y91.308 E1.32965
G1 X109.52 Y91.3 E1.34337
G1 X110.219 Y91.293 E1.37244
G1 X110.497 Y91.293 E1.38399
G1 X110.899 Y91.304 E1.40071
G1 X111.392 Y91.325 E1.42123
G1 X111.694 Y91.342 E1.4338
G1 X112.252 Y91.384 E1.45707
G1 X112.642 Y91.42 E1.47335
G1 X113.089 Y91.469 E1.49205
G1 X113.451 Y91.517 E1.50723
G1 X114.198 Y91.63 E1.53864
G1 X114.621 Y91.702 E1.55648
G1 X114.909 Y91.757 E1.56867
G1 X115.312 Y91.84 E1.58577
G1 X115.537 Y91.889 E1.59535
G1 X116.053 Y92.007 E1.61735
G1 X116.384 Y92.088 E1.63152
G1 X116.677 Y92.165 E1.64412
G1 X117.014 Y92.26 E1.65867
G1 X117.768 Y92.485 E1.69139
G1 X118.297 Y92.658 E1.71453
G1 X118.8 Y92.838 E1.73674
G1 X119.31 Y93.029 E1.75938
G1 X119.738 Y93.2 E1.77854
G1 X120.298 Y93.438 E1.80384
G1 X120.667 Y93.604 E1.82066
G1 X121.13 Y93.822 E1.84194
G1 X121.544 Y94.027 E1.86114
G1 X122.239 Y94.392 E1.89378
G1 X122.545 Y94.56 E1.90829
G1 X122.95 Y94.79 E1.92766
G1 X123.39 Y95.054 E1.94899
G1 X123.999 Y95.44 E1.97897
G1 X124.228 Y95.589 E1.99033
G1 X124.398 Y95.703 E1.99884
G1 X124.65 Y95.878 E2.01159
G1 X125.158 Y96.243 E2.0376
G1 X125.561 Y96.545 E2.05854
G1 X125.874 Y96.789 E2.07504
G1 X126.252 Y97.095 E2.09526
G1 X126.614 Y97.398 E2.11488
G1 X126.79 Y97.55 E2.12455
G1 X127.255 Y97.96 E2.15032
G1 X127.619 Y98.297 E2.17095
G1 X127.936 Y98.604 E2.18929
G1 X128.155 Y98.822 E2.20214
G1 X128.492 Y99.168 E2.22222
G1 X128.816 Y99.515 E2.24196
G1 X129.084 Y99.816 E2.25872
G1 X129.28 Y100.043 E2.27118
G1 X129.888 Y100.766 E2.31046
G1 X130.075 Y100.995 E2.32275
G1 X130.214 Y101.17 E2.33204
G1 X130.564 Y101.627 E2.35597
G1 X130.833 Y101.993 E2.37486
G1 X131.059 Y102.323 E2.39149
G1 X131.518 Y103.017 E2.42608
G1 X131.702 Y103.304 E2.44025
G1 X131.848 Y103.541 E2.45183
G1 X132.032 Y103.851 E2.46681
G1 X132.158 Y104.072 E2.47739
G1 X132.573 Y104.88 E2.51516
G1 X132.693 Y105.14 E2.52706
G1 X133.043 Y105.992 E2.56536
G1 X133.331 Y106.925 E2.60595
G1 X133.382 Y107.122 E2.61441
G1 X133.574 Y108.023 E2.65271
G1 X133.689 Y108.972 E2.69245
G1 X133.709 Y109.234 E2.70338
G1 X133.739 Y110.154 E2.74165
G1 X133.66 Y111.343 E2.79119
G1 X133.634 Y111.553 E2.79999
G1 X133.481 Y112.461 E2.83827
G1 X133.253 Y113.342 E2.8761
G1 X133.171 Y113.611 E2.8878
G1 X132.865 Y114.479 E2.92606
G1 X132.513 Y115.26 E2.96168
G1 X132.42 Y115.446 E2.97032
G1 X132.044 Y116.134 E3.00292
G1 X131.828 Y116.493 E3.02034
G1 X131.581 Y116.892 E3.03985
G1 X131.352 Y117.246 E3.05738
G1 X131.015 Y117.745 E3.08241
G1 X130.833 Y118.007 E3.09567
G1 X130.676 Y118.225 E3.10684
G1 X130.483 Y118.484 E3.12027
G1 X130.11 Y118.97 E3.14574
G1 X129.84 Y119.311 E3.16382
G1 X129.496 Y119.72 E3.18604
G1 X128.942 Y120.346 E3.2208
G1 X128.736 Y120.572 E3.23351
G1 X128.434 Y120.89 E3.25174
G1 X128.091 Y121.239 E3.27209
G1 X127.721 Y121.604 E3.2937
G1 X127.567 Y121.752 E3.30258
G1 X127.35 Y121.954 E3.3149
G1 X127 Y122.272 E3.33456
G1 X126.655 Y122.573 E3.3536
G1 X126.165 Y122.981 E3.38011
G1 X125.924 Y123.175 E3.39297
G1 X125.641 Y123.397 E3.40792
G1 X125.33 Y123.632 E3.42413
G1 X124.774 Y124.035 E3.45268
G1 X124.543 Y124.199 E3.46446
G1 X124.223 Y124.418 E3.48058
G1 X123.804 Y124.693 E3.50142
G1 X123.357 Y124.97 E3.52328
G1 X122.966 Y125.2 E3.54214
G1 X122.382 Y125.535 E3.57013
G1 X122.235 Y125.616 E3.57711
G1 X122 Y125.741 E3.58817
G1 X121.653 Y125.921 E3.60443
G1 X121.327 Y126.083 E3.61956
G1 X120.556 Y126.448 E3.65503
G1 X120.275 Y126.575 E3.66785
G1 X119.943 Y126.718 E3.68287
G1 X119.457 Y126.918 E3.70472
G1 X118.974 Y127.103 E3.72623
G1 X118.344 Y127.327 E3.75403
G1 X117.876 Y127.482 E3.77452
G1 X117.218 Y127.682 E3.80312
G1 X116.907 Y127.771 E3.81656
G1 X116.49 Y127.884 E3.83453
G1 X116.099 Y127.982 E3.85128
G1 X115.721 Y128.069 E3.86741
G1 X115.29 Y128.163 E3.88575
G1 X114.949 Y128.231 E3.90021
G1 X114.313 Y128.348 E3.92709
G1 X113.992 Y128.402 E3.94063
G1 X113.559 Y128.468 E3.95884
G1 X113.161 Y128.522 E3.97553
G1 X112.762 Y128.567 E3.99223
G1 X112.141 Y128.624 E4.01816
G1 X111.83 Y128.648 E4.03112
G1 X111.412 Y128.674 E4.04854
G1 X111.106 Y128.688 E4.06127
G1 X110.595 Y128.705 E4.08253
G1 X110.269 Y128.711 E4.09608
G1 X109.869 Y128.712 E4.11271
G1 X109.54 Y128.708 E4.12639
G1 X109.12 Y128.696 E4.14386
G1 X108.394 Y128.662 E4.17408
G1 X99.315 Y128.108 E4.55224
G1 X96.686 Y127.95 E4.66174
G1 X85.935 Y127.294 E5.10955
G1 X84.781 Y127.206 E5.15766
G1 X83.434 Y127.014 E5.21423
G1 X83.204 Y126.966 E5.224
G1 X82.312 Y126.739 E5.26227
G1 X81.754 Y126.554 E5.28671
G1 X81.517 Y126.468 E5.29719
G1 X80.295 Y125.936 E5.3526
G1 X80.102 Y125.837 E5.36162
G1 X79.302 Y125.381 E5.3999
G1 X78.725 Y124.992 E5.42883
G1 X78.515 Y124.84 E5.43961
G1 X77.793 Y124.268 E5.47791
G1 X77.256 Y123.77 E5.50835
G1 X77.08 Y123.595 E5.51867
G1 X76.456 Y122.918 E5.55695
G1 X75.961 Y122.284 E5.59039
G1 X75.792 Y122.05 E5.60239
G1 X75.286 Y121.281 E5.64066
G1 X74.951 Y120.677 E5.66938
G1 X74.847 Y120.474 E5.67886
G1 X74.371 Y119.404 E5.72755
G1 X74.3 Y119.217 E5.73587
G1 X74.011 Y118.342 E5.77418
G1 X73.888 Y117.866 E5.79462
G1 X73.838 Y117.652 E5.80376
G1 X73.629 Y116.449 E5.85452
G1 X73.598 Y116.179 E5.86582
G1 X73.537 Y115.387 E5.89884
G1 X73.53 Y115.209 E5.90625
G1 X73.523 Y114.914 E5.91852
G1 X73.515 Y114.182 E5.94895
G1 X73.517 Y105.605 E6.30554
G1 X73.527 Y104.916 E6.33419
G1 X73.556 Y104.277 E6.36079
G1 X73.562 Y104.197 E6.36412
G1 X73.661 Y103.341 E6.39995
G1 X73.718 Y102.979 E6.41518
G1 X73.901 Y102.077 E6.45345
G1 X74.121 Y101.312 E6.48654
G1 X74.203 Y101.063 E6.49744
G1 X74.529 Y100.202 E6.53572
G1 X74.741 Y99.739 E6.55689
G1 X74.834 Y99.548 E6.56572
G1 X75.272 Y98.738 E6.604
G1 X75.559 Y98.286 E6.62626
G1 X75.683 Y98.101 E6.63552
G1 X76.375 Y97.181 E6.68338
G1 X76.486 Y97.049 E6.69055
G1 X77.109 Y96.371 E6.72884
G1 X77.701 Y95.823 E6.76237
G1 X77.932 Y95.625 E6.77502
G0 F9000 X78.192 Y95.929
G1 F3000 X79.089 Y95.242 E6.822
G1 X79.706 Y94.852 E6.85234
G1 X79.992 Y94.685 E6.86611
G1 X80.791 Y94.264 E6.90366
G1 X81.527 Y93.953 E6.93688
G1 X81.683 Y93.894 E6.94381
G1 X82.817 Y93.539 E6.99322
G1 X83.077 Y93.474 E7.00436
G1 X84.232 Y93.255 E7.05323
G1 X84.301 Y93.246 E7.05613
G1 X84.824 Y93.191 E7.07799
G1 X85.769 Y93.117 E7.1174
G1 X108.131 Y91.754 E8.04883
G1 X109.207 Y91.708 E8.0936
G1 X109.524 Y91.7 E8.10679
G1 X110.223 Y91.693 E8.13585
G1 X110.491 Y91.693 E8.14699
G1 X110.882 Y91.703 E8.16325
G1 X111.375 Y91.724 E8.18377
G1 X111.666 Y91.741 E8.19589
G1 X112.216 Y91.782 E8.21882
G1 X112.606 Y91.818 E8.2351
G1 X113.043 Y91.866 E8.25338
G1 X113.392 Y91.913 E8.26802
G1 X114.139 Y92.026 E8.29943
G1 X114.393 Y92.067 E8.31013
G1 X114.551 Y92.095 E8.3168
G1 X114.829 Y92.149 E8.32857
G1 X115.232 Y92.232 E8.34568
G1 X115.448 Y92.279 E8.35487
G1 X115.964 Y92.397 E8.37687
G1 X116.283 Y92.475 E8.39053
G1 X116.576 Y92.552 E8.40312
G1 X116.9 Y92.643 E8.41711
G1 X117.654 Y92.868 E8.44983
G1 X118.162 Y93.034 E8.47205
G1 X118.659 Y93.213 E8.49401
G1 X119.169 Y93.404 E8.51665
G1 X119.582 Y93.569 E8.53514
G1 X120.142 Y93.807 E8.56044
G1 X120.497 Y93.966 E8.57661
G1 X120.96 Y94.184 E8.59789
G1 X121.358 Y94.382 E8.61637
G1 X122.053 Y94.747 E8.64901
G1 X122.347 Y94.907 E8.66292
G1 X122.752 Y95.137 E8.68229
G1 X123.176 Y95.392 E8.70286
G1 X123.785 Y95.778 E8.73283
G1 X124.005 Y95.921 E8.74374
G1 X124.175 Y96.035 E8.75225
G1 X124.418 Y96.203 E8.76453
G1 X124.725 Y96.422 E8.78021
G1 X124.918 Y96.564 E8.79017
G1 X125.321 Y96.866 E8.81111
G1 X125.622 Y97.1 E8.82696
G1 X126 Y97.406 E8.84718
G1 X126.356 Y97.704 E8.86648
G1 X126.526 Y97.85 E8.8758
G1 X126.991 Y98.26 E8.90157
G1 X127.341 Y98.584 E8.9214
G1 X127.658 Y98.891 E8.93975
G1 X127.869 Y99.101 E8.95213
G1 X128.206 Y99.447 E8.97221
G1 X128.517 Y99.781 E8.99118
G1 X128.785 Y100.082 E9.00794
G1 X128.974 Y100.3 E9.01993
G1 X129.582 Y101.023 E9.05921
G1 X129.762 Y101.244 E9.07106
G1 X129.901 Y101.419 E9.08035
G1 X130.247 Y101.871 E9.10401
G1 X130.506 Y102.223 E9.12218
G1 X130.726 Y102.543 E9.13833
G1 X131.185 Y103.237 E9.17292
G1 X131.361 Y103.514 E9.18656
G1 X131.507 Y103.751 E9.19814
G1 X131.684 Y104.049 E9.21255
G1 X131.81 Y104.27 E9.22312
G1 X132.21 Y105.048 E9.25949
G1 X132.33 Y105.308 E9.2714
G1 X132.672 Y106.144 E9.30895
G1 X132.943 Y107.026 E9.34731
G1 X132.994 Y107.223 E9.35577
G1 X133.182 Y108.106 E9.39331
G1 X133.29 Y109.003 E9.43087
G1 X133.31 Y109.265 E9.44179
G1 X133.339 Y110.167 E9.47931
G1 X133.263 Y111.294 E9.52628
G1 X133.237 Y111.504 E9.53507
G1 X133.086 Y112.395 E9.57264
G1 X132.871 Y113.225 E9.60829
G1 X132.789 Y113.494 E9.61998
G1 X132.487 Y114.346 E9.65756
G1 X132.155 Y115.082 E9.69113
G1 X132.062 Y115.268 E9.69978
G1 X131.7 Y115.929 E9.73111
G1 X131.488 Y116.283 E9.74827
G1 X131.241 Y116.682 E9.76778
G1 X131.021 Y117.022 E9.78461
G1 X130.684 Y117.521 E9.80965
G1 X130.508 Y117.773 E9.82243
G1 X130.351 Y117.991 E9.83359
G1 X130.166 Y118.24 E9.84649
G1 X129.793 Y118.726 E9.87196
G1 X129.527 Y119.061 E9.88975
G1 X129.196 Y119.455 E9.91114
G1 X128.642 Y120.081 E9.94589
G1 X128.444 Y120.299 E9.95814
G1 X128.148 Y120.611 E9.97602
G1 X127.81 Y120.955 E9.99607
G1 X127.444 Y121.315 E10.01741
G1 X127.29 Y121.463 E10.02629
G1 X127.081 Y121.658 E10.03818
G1 X126.731 Y121.976 E10.05784
G1 X126.399 Y122.265 E10.07614
G1 X125.909 Y122.673 E10.10265
G1 X125.678 Y122.86 E10.115
G1 X125.395 Y123.082 E10.12996
G1 X125.095 Y123.308 E10.14557
G1 X124.543 Y123.709 E10.17394
G1 X124.312 Y123.873 E10.18572
G1 X124.004 Y124.083 E10.20121
G1 X123.585 Y124.358 E10.22205
G1 X123.155 Y124.626 E10.24312
G1 X122.766 Y124.853 E10.26184
G1 X122.189 Y125.185 E10.28952
G1 X122.042 Y125.266 E10.2965
G1 X121.816 Y125.386 E10.30713
G1 X121.469 Y125.566 E10.32339
G1 X121.155 Y125.722 E10.33796
G1 X120.391 Y126.084 E10.37311
G1 X120.11 Y126.211 E10.38593
G1 X119.791 Y126.349 E10.40038
G1 X119.305 Y126.549 E10.42223
G1 X118.84 Y126.727 E10.44293
G1 X118.21 Y126.951 E10.47073
G1 X117.759 Y127.099 E10.49047
G1 X117.101 Y127.299 E10.51906
G1 X116.803 Y127.385 E10.53195
G1 X116.386 Y127.498 E10.54991
G1 X116.009 Y127.592 E10.56607
G1 X115.636 Y127.678 E10.58198
G1 X115.205 Y127.772 E10.60032
G1 X114.876 Y127.838 E10.61427
G1 X114.24 Y127.955 E10.64116
G1 X113.932 Y128.007 E10.65415
G1 X113.499 Y128.073 E10.67236
G1 X113.11 Y128.126 E10.68868
G1 X112.725 Y128.168 E10.70478
G1 X112.104 Y128.225 E10.73071
G1 X111.805 Y128.248 E10.74317
G1 X111.387 Y128.274 E10.76059
G1 X111.093 Y128.288 E10.77282
G1 X110.582 Y128.305 E10.79408
G1 X110.268 Y128.311 E10.80714
G1 X109.868 Y128.312 E10.82377
G1 X109.552 Y128.308 E10.8369
G1 X108.921 Y128.288 E10.86315
G1 X108.294 Y128.256 E10.88925
G1 X99.339 Y127.709 E11.26225
G1 X96.711 Y127.551 E11.37171
G1 X85.793 Y126.884 E11.82647
G1 X84.812 Y126.808 E11.86738
G1 X83.516 Y126.623 E11.92181
G1 X83.286 Y126.575 E11.93158
G1 X82.411 Y126.351 E11.96913
G1 X81.891 Y126.178 E11.99191
G1 X81.654 Y126.092 E12.00239
G1 X80.478 Y125.58 E12.05572
G1 X80.285 Y125.481 E12.06474
G1 X79.5 Y125.033 E12.10232
G1 X78.959 Y124.668 E12.12945
G1 X78.749 Y124.516 E12.14023
G1 X78.042 Y123.954 E12.17777
G1 X77.538 Y123.486 E12.20637
G1 X77.362 Y123.311 E12.21669
G1 X76.75 Y122.647 E12.25423
G1 X76.285 Y122.05 E12.28569
G1 X76.116 Y121.816 E12.29769
G1 X75.62 Y121.061 E12.33525
G1 X75.307 Y120.495 E12.36214
G1 X75.203 Y120.292 E12.37162
G1 X74.745 Y119.262 E12.41849
G1 X74.674 Y119.075 E12.4268
G1 X74.391 Y118.217 E12.46437
G1 X74.278 Y117.775 E12.48333
G1 X74.228 Y117.561 E12.49247
G1 X74.027 Y116.403 E12.54133
G1 X73.996 Y116.133 E12.55263
G1 X73.937 Y115.371 E12.58441
G1 X73.93 Y115.193 E12.59181
G1 X73.923 Y114.909 E12.60362
G1 X73.915 Y114.182 E12.63385
G1 X73.917 Y105.611 E12.99019
G1 X73.927 Y104.922 E13.01884
G1 X73.955 Y104.307 E13.04444
G1 X73.961 Y104.227 E13.04777
G1 X74.056 Y103.403 E13.08226
G1 X74.113 Y103.041 E13.09749
G1 X74.293 Y102.156 E13.13504
G1 X74.501 Y101.438 E13.16612
G1 X74.583 Y101.189 E13.17702
G1 X74.903 Y100.344 E13.21458
G1 X75.1 Y99.914 E13.23425
G1 X75.193 Y99.723 E13.24308
G1 X75.624 Y98.929 E13.28064
G1 X75.891 Y98.509 E13.30133
G1 X76.015 Y98.324 E13.31059
G1 X76.681 Y97.438 E13.35667
G1 X76.792 Y97.306 E13.36384
G1 X77.404 Y96.641 E13.40142
G1 X77.961 Y96.127 E13.43293
G1 X78.192 Y95.929 E13.44558
G1 F1500 E12.44558
;MESH:3DBenchy.stl
G0 F9000 X84.285 Y103.246
G0 X84.878 Y104.03
G0 X84.915 Y107.454
G0 X86.618 Y106.688
G0 X87.323 Y106.544
G0 X87.968 Y106.551
G0 X88.702 Y106.739
G0 X89.275 Y107.113
G0 X89.484 Y107.336
G0 X89.639 Y107.622
G0 X89.683 Y107.94
G0 X89.609 Y108.229
G0 X89.406 Y108.524
G0 X89.099 Y108.709
G0 X87.393 Y108.659
G0 X87.131 Y108.798
G0 X86.887 Y109.318
G0 X86.84 Y110.223
G0 X86.975 Y110.91
G0 X87.246 Y111.208
G0 X87.552 Y111.287
G0 X88.957 Y110.92
G0 X89.975 Y111.89
;TYPE:WALL-INNER
G1 F1500 E13.44558
G1 F9000 X89.837 Y111.493 E13.46305
G1 X89.567 Y111.196 E13.47974
G1 X89.211 Y111.004 E13.49655
G1 X88.767 Y110.932 E13.51525
G1 X88.321 Y111.029 E13.53423
G1 X87.999 Y111.288 E13.55141
G1 X87.801 Y111.434 E13.56164
G1 X87.54 Y111.461 E13.57255
G1 X87.161 Y111.363 E13.58882
G1 X86.898 Y111.129 E13.60346
G1 X86.816 Y110.976 E13.61067
G1 X86.721 Y110.658 E13.62447
G1 X86.669 Y110.23 E13.6424
G1 X86.664 Y109.835 E13.65882
G1 X86.682 Y109.531 E13.67148
G1 X86.72 Y109.281 E13.682
G1 X86.787 Y109.037 E13.69252
G1 X87.003 Y108.678 E13.70993
G1 X87.172 Y108.559 E13.71853
G1 X87.353 Y108.492 E13.72655
G1 X87.547 Y108.475 E13.73465
G1 X87.731 Y108.525 E13.74258
G1 X88.068 Y108.731 E13.759
G1 X88.369 Y108.889 E13.77313
G1 X88.779 Y109.002 E13.79081
G1 X89.183 Y108.965 E13.80768
G1 X89.59 Y108.719 E13.82745
G1 X89.851 Y108.339 E13.84662
G1 X89.855 Y108.322 E13.84734
G1 X89.919 Y108.073 E13.85803
G1 X90.021 Y108.219 E13.85921
G1 X90.146 Y108.396 E13.86462
G1 X90.564 Y108.617 E13.88428
G1 X90.947 Y108.643 E13.90024
G1 X91.118 Y108.627 E13.90738
G1 X91.439 Y108.582 E13.92086
G1 X91.487 Y108.576 E13.92287
G1 X91.7 Y108.582 E13.93173
G1 X91.705 Y108.807 E13.94109
G1 X91.703 Y108.856 E13.94312
G1 X91.683 Y109.22 E13.95828
G1 X91.692 Y109.702 E13.97832
G1 X91.691 Y110.759 E14.02227
G1 X91.687 Y111.352 E14.04692
G1 X91.699 Y111.877 E14.06876
G1 X91.697 Y112.013 E14.07441
G1 X91.658 Y112.414 E14.09116
G1 X91.693 Y112.819 E14.10806
G1 X91.866 Y113.151 E14.12363
G1 X92.225 Y113.416 E14.14218
G1 X92.737 Y113.518 E14.16388
G1 X93.214 Y113.421 E14.18412
G1 X93.585 Y113.127 E14.2038
