;FLAVOR:Marlin
;TIME:870
;Filament used: 1.08208m
;Layer height: 0.25
;MINX:89.4
;MINY:89.4
;MINZ:0.25
;MAXX:130.6
;MAXY:130.6
;MAXZ:20
;Generated with Cura_SteamEngine 4.11.0
M140 S70
M105
M190 S70
M104 S230
M105
M109 S230
M82 ;absolute extrusion mode
; Ender 3 Custom Start G-code
G92 E0 ; Reset Extruder
G28 ; Home all axes
G29 ; Bed Levelling
G1 Z2.0 F3000 ; Move Z Axis up little to prevent scratching of Heat Bed
G1 X0.1 Y20 Z0.3 F5000.0 ; Move to start position
G1 X0.1 Y200.0 Z0.3 F1500.0 E15 ; Draw the first line
G1 X0.4 Y200.0 Z0.3 F5000.0 ; Move to side a little
G1 X0.4 Y20 Z0.3 F1500.0 E30 ; Draw the second line
G92 E0 ; Reset Extruder
G1 Z2.0 F3000 ; Move Z Axis up little to prevent scratching of Heat Bed
G1 X5 Y20 Z0.3 F5000.0 ; Move over to prevent blob squish
G92 E0
G92 E0
G1 F1500 E-1
;LAYER_COUNT:80
;LAYER:0
M107
G0 F9000 X92.589 Y92.439 Z0.25
;TYPE:SKIRT
G1 F1500 E0
G1 F3000 X93.274 Y91.823 E0.0383
G1 X94.01 Y91.27 E0.07657
G1 X94.791 Y90.782 E0.11486
G1 X95.611 Y90.364 E0.15313
G1 X96.465 Y90.019 E0.19142
G1 X97.345 Y89.749 E0.22969
G1 X98.245 Y89.557 E0.26795
G1 X99.159 Y89.443 E0.30624
G1 X99.712 Y89.413 E0.32927
G1 X100.033 Y89.404 E0.34262
G1 X100.33 Y89.4 E0.35497
G1 X119.293 Y89.4 E1.14336
G1 X120.143 Y89.411 E1.1787
G1 X121.062 Y89.464 E1.21697
G1 X121.973 Y89.597 E1.25525
G1 X122.869 Y89.808 E1.29352
G1 X123.743 Y90.096 E1.33178
G1 X124.59 Y90.459 E1.37009
G1 X125.401 Y90.894 E1.40835
G1 X126.171 Y91.398 E1.44661
G1 X126.895 Y91.967 E1.4849
G1 X127.567 Y92.597 E1.52319
G1 X128.182 Y93.282 E1.56146
G1 X128.735 Y94.018 E1.59974
G1 X129.222 Y94.799 E1.638
G1 X129.639 Y95.62 E1.67629
G1 X129.984 Y96.474 E1.71458
G1 X130.253 Y97.354 E1.75284
G1 X130.445 Y98.255 E1.79114
G1 X130.558 Y99.168 E1.82939
G1 X130.587 Y99.712 E1.85204
G1 X130.596 Y100.032 E1.86534
G1 X130.6 Y100.33 E1.87773
G1 X130.599 Y119.395 E2.67037
G1 X130.59 Y120.122 E2.70059
G1 X130.539 Y121.041 E2.73886
G1 X130.408 Y121.953 E2.77717
G1 X130.198 Y122.849 E2.81543
G1 X129.912 Y123.724 E2.8537
G1 X129.551 Y124.571 E2.89198
G1 X129.117 Y125.383 E2.93026
G1 X128.615 Y126.155 E2.96854
G1 X128.047 Y126.88 E3.00683
G1 X127.419 Y127.553 E3.0451
G1 X126.735 Y128.169 E3.08337
G1 X126 Y128.723 E3.12164
G1 X125.22 Y129.212 E3.15991
G1 X124.4 Y129.631 E3.1982
G1 X123.547 Y129.977 E3.23647
G1 X122.667 Y130.248 E3.27475
G1 X121.767 Y130.441 E3.31302
G1 X120.853 Y130.556 E3.35132
G1 X120.288 Y130.587 E3.37484
G1 X119.967 Y130.596 E3.38819
G1 X119.67 Y130.6 E3.40054
G1 X100.57 Y130.599 E4.19463
G1 X99.872 Y130.59 E4.22365
G1 X98.953 Y130.538 E4.26192
G1 X98.042 Y130.407 E4.30018
G1 X97.146 Y130.197 E4.33844
G1 X96.271 Y129.91 E4.37673
G1 X95.424 Y129.548 E4.41502
G1 X94.612 Y129.114 E4.4533
G1 X93.841 Y128.612 E4.49155
G1 X93.116 Y128.044 E4.52984
G1 X92.443 Y127.415 E4.56814
G1 X91.828 Y126.731 E4.60638
G1 X91.274 Y125.996 E4.64465
G1 X90.786 Y125.215 E4.68294
G1 X90.367 Y124.395 E4.72122
G1 X90.021 Y123.542 E4.75949
G1 X89.751 Y122.662 E4.79776
G1 X89.558 Y121.761 E4.83607
G1 X89.444 Y120.848 E4.87432
G1 X89.413 Y120.277 E4.8981
G1 X89.404 Y119.944 E4.91195
G1 X89.4 Y119.658 E4.92384
G1 X89.401 Y100.531 E5.71905
G1 X89.41 Y99.866 E5.7467
G1 X89.462 Y98.946 E5.78501
G1 X89.594 Y98.035 E5.82328
G1 X89.805 Y97.139 E5.86155
G1 X90.092 Y96.264 E5.89983
G1 X90.455 Y95.418 E5.93811
G1 X90.889 Y94.606 E5.97638
G1 X91.392 Y93.835 E6.01466
G1 X91.961 Y93.111 E6.05294
G1 X92.589 Y92.439 E6.09118
G0 F9000 X92.981 Y92.617
G1 F3000 X93.662 Y92.024 E6.12872
G1 X94.394 Y91.494 E6.1663
G1 X95.169 Y91.031 E6.20383
G1 X95.982 Y90.638 E6.24137
G1 X96.827 Y90.318 E6.27894
G1 X97.696 Y90.075 E6.31645
G1 X98.584 Y89.909 E6.35401
G1 X99.723 Y89.813 E6.40153
G1 X100.044 Y89.804 E6.41488
G1 X100.33 Y89.8 E6.42677
G1 X119.293 Y89.8 E7.21516
G1 X120.137 Y89.811 E7.25026
G1 X121.039 Y89.864 E7.28782
G1 X121.932 Y89.996 E7.32535
G1 X122.81 Y90.207 E7.36289
G1 X123.666 Y90.495 E7.40044
G1 X124.493 Y90.857 E7.43798
G1 X125.285 Y91.292 E7.47554
G1 X126.036 Y91.794 E7.5131
G1 X126.739 Y92.361 E7.55065
G1 X127.389 Y92.988 E7.5882
G1 X127.981 Y93.67 E7.62574
G1 X128.511 Y94.401 E7.66328
G1 X128.973 Y95.177 E7.70083
G1 X129.366 Y95.99 E7.73837
G1 X129.684 Y96.835 E7.77591
G1 X129.927 Y97.705 E7.81346
G1 X130.092 Y98.593 E7.85101
G1 X130.187 Y99.723 E7.89816
G1 X130.196 Y100.043 E7.91147
G1 X130.2 Y100.33 E7.9234
G1 X130.199 Y119.39 E8.71582
G1 X130.19 Y120.117 E8.74605
G1 X130.139 Y121.019 E8.78361
G1 X130.008 Y121.913 E8.82118
G1 X129.799 Y122.791 E8.8587
G1 X129.513 Y123.648 E8.89626
G1 X129.152 Y124.476 E8.93381
G1 X128.72 Y125.268 E8.97132
G1 X128.219 Y126.02 E9.00889
G1 X127.653 Y126.724 E9.04645
G1 X127.028 Y127.375 E9.08396
G1 X126.347 Y127.969 E9.12153
G1 X125.616 Y128.5 E9.1591
G1 X124.842 Y128.964 E9.19662
G1 X124.029 Y129.358 E9.23418
G1 X123.185 Y129.678 E9.2717
G1 X122.315 Y129.923 E9.30928
G1 X121.428 Y130.089 E9.3468
G1 X120.277 Y130.187 E9.39482
G1 X119.956 Y130.196 E9.40818
G1 X119.67 Y130.2 E9.42007
G1 X100.575 Y130.199 E10.21395
G1 X99.877 Y130.19 E10.24297
G1 X98.976 Y130.139 E10.28049
G1 X98.082 Y130.007 E10.31806
G1 X97.204 Y129.798 E10.35558
G1 X96.347 Y129.511 E10.39316
G1 X95.52 Y129.15 E10.43067
G1 X94.727 Y128.717 E10.46823
G1 X93.976 Y128.216 E10.50577
G1 X93.272 Y127.65 E10.54332
G1 X92.621 Y127.024 E10.58087
G1 X92.028 Y126.343 E10.61841
G1 X91.498 Y125.612 E10.65595
G1 X91.034 Y124.837 E10.69351
G1 X90.64 Y124.024 E10.73107
G1 X90.32 Y123.18 E10.76859
G1 X90.076 Y122.31 E10.80616
G1 X89.91 Y121.422 E10.84372
G1 X89.813 Y120.267 E10.89191
G1 X89.804 Y119.934 E10.90576
G1 X89.8 Y119.658 E10.91723
G1 X89.801 Y100.536 E11.71223
G1 X89.81 Y99.871 E11.73988
G1 X89.862 Y98.969 E11.77745
G1 X89.994 Y98.076 E11.81498
G1 X90.204 Y97.198 E11.85251
G1 X90.491 Y96.341 E11.89008
G1 X90.853 Y95.514 E11.92762
G1 X91.286 Y94.722 E11.96514
G1 X91.788 Y93.971 E12.0027
G1 X92.355 Y93.267 E12.04028
G1 X92.981 Y92.617 E12.0778
G1 F1500 E11.0778
;MESH:xyzCalibration_cube.stl
G0 F9000 X99.588 Y99.589
G0 X100.414 Y100.414
G0 X119.218 Y100.782
G0 X119.4 Y119.4
;TYPE:WALL-INNER
G1 F1500 E12.0778
G1 F9000 X100.6 Y119.4 E12.85941
G1 X100.6 Y100.6 E13.64103
G1 X119.4 Y100.6 E14.42264
G1 X119.4 Y119.4 E15.20425
G0 X119.8 Y119.8
;TYPE:WALL-OUTER
G1 X100.2 Y119.8 E16.01913
G1 X100.2 Y100.2 E16.834
G1 X119.8 Y100.2 E17.64887
G1 X119.8 Y119.8 E18.46375
G0 X119.53 Y119.53
G0 X119.29 Y119.01
G0 X119.01 Y119.01
;TYPE:SKIN
G1 X100.99 Y119.01 E19.21293
G1 X100.99 Y100.99 E19.96211
G1 X119.01 Y100.99 E20.7113
G1 X119.01 Y119.01 E21.46048
G0 X119.29 Y119.01
G0 X119.29 Y101.313
G0 X118.849 Y101.313
G1 X118.686 Y101.15 E21.47007
G0 X118.12 Y101.15
G1 X118.849 Y101.879 E21.51293
G0 X118.849 Y102.444
G1 X117.555 Y101.15 E21.58901
G0 X116.989 Y101.15
G1 X118.849 Y103.01 E21.69837
G0 X118.849 Y103.576
G1 X116.423 Y101.15 E21.84101
G0 X115.858 Y101.15
G1 X118.849 Y104.141 E22.01687
G0 X118.849 Y104.707
G1 X115.292 Y101.15 E22.22601
G0 X114.726 Y101.15
G1 X118.849 Y105.273 E22.46843
G0 X118.849 Y105.839
G1 X114.16 Y101.15 E22.74412
G0 X113.595 Y101.15
G1 X118.849 Y106.404 E23.05304
G0 X118.849 Y106.97
G1 X113.029 Y101.15 E23.39523
G0 X112.463 Y101.15
G1 X118.849 Y107.536 E23.7707
G0 X118.849 Y108.101
G1 X111.898 Y101.15 E24.17939
G0 X111.332 Y101.15
G1 X118.849 Y108.667 E24.62137
G0 X118.849 Y109.233
G1 X110.766 Y101.15 E25.09661
G0 X110.201 Y101.15
G1 X118.849 Y109.798 E25.60508
G0 X118.849 Y110.364
G1 X109.635 Y101.15 E26.14683
G0 X109.069 Y101.15
G1 X118.849 Y110.93 E26.72186
G0 X118.849 Y111.495
G1 X108.504 Y101.15 E27.33011
G0 X107.938 Y101.15
G1 X118.849 Y112.061 E27.97163
G0 X118.849 Y112.627
G1 X107.372 Y101.15 E28.64643
G0 X106.807 Y101.15
G1 X118.849 Y113.192 E29.35446
G0 X118.849 Y113.758
G1 X106.241 Y101.15 E30.09576
G0 X105.675 Y101.15
G1 X118.849 Y114.324 E30.87034
G0 X118.849 Y114.89
G1 X105.11 Y101.15 E31.67817
G0 X104.544 Y101.15
G1 X118.849 Y115.455 E32.51925
G0 X118.849 Y116.021
G1 X103.978 Y101.15 E33.39361
G0 X103.412 Y101.15
G1 X118.849 Y116.587 E34.30124
G0 X118.849 Y117.152
G1 X102.847 Y101.15 E35.2421
G0 X102.281 Y101.15
G1 X118.849 Y117.718 E36.21623
G0 X118.849 Y118.284
G1 X101.715 Y101.15 E37.22365
G0 X101.149 Y101.149
G1 X118.849 Y118.849 E38.26434
G0 X118.283 Y118.849
G1 X101.149 Y101.715 E39.27175
G0 X101.149 Y102.28
G1 X117.717 Y118.849 E40.24592
G0 X117.152 Y118.849
G1 X101.149 Y102.846 E41.18683
G0 X101.149 Y103.412
G1 X116.586 Y118.849 E42.09447
G0 X116.02 Y118.849
G1 X101.149 Y103.977 E42.96886
G0 X101.149 Y104.543
G1 X115.454 Y118.849 E43.80997
G0 X114.889 Y118.849
G1 X101.149 Y105.109 E44.61782
G0 X101.149 Y105.674
G1 X114.323 Y118.849 E45.39243
G0 X113.757 Y118.849
G1 X101.149 Y106.24 E46.13377
G0 X101.149 Y106.806
G1 X113.192 Y118.849 E46.84185
G0 X112.626 Y118.849
G1 X101.149 Y107.372 E47.51665
G0 X101.149 Y107.937
G1 X112.06 Y118.849 E48.15821
G0 X111.495 Y118.849
G1 X101.149 Y108.503 E48.76651
G0 X101.149 Y109.069
G1 X110.929 Y118.849 E49.34154
G0 X110.363 Y118.849
G1 X101.149 Y109.634 E49.88332
G0 X101.149 Y110.2
G1 X109.798 Y118.849 E50.39184
G0 X109.232 Y118.849
G1 X101.149 Y110.766 E50.86709
G0 X101.149 Y111.331
G1 X108.666 Y118.849 E51.30909
G0 X108.101 Y118.849
G1 X101.149 Y111.897 E51.71784
G0 X101.149 Y112.463
G1 X107.535 Y118.849 E52.09332
G0 X106.969 Y118.849
G1 X101.149 Y113.028 E52.43554
G0 X101.149 Y113.594
G1 X106.404 Y118.849 E52.74451
G0 X105.838 Y118.849
G1 X101.149 Y114.16 E53.02021
G0 X101.149 Y114.725
G1 X105.272 Y118.849 E53.26265
G0 X104.706 Y118.849
G1 X101.149 Y115.291 E53.47182
G0 X101.149 Y115.857
G1 X104.141 Y118.849 E53.64774
G0 X103.575 Y118.849
G1 X101.149 Y116.423 E53.79038
G0 X101.149 Y116.988
G1 X103.009 Y118.849 E53.89977
G0 X102.444 Y118.849
G1 X101.149 Y117.554 E53.97591
G0 X101.149 Y118.12
G1 X101.878 Y118.849 E54.01877
G0 X101.312 Y118.849
G1 X101.149 Y118.685 E54.02839
G0 X100.8 Y118.685
;MESH:NONMESH
G0 F300 X100.8 Y118.685 Z0.5
G0 F9000 X100.71 Y118.685
G0 X100.782 Y119.218
G0 X119.4 Y119.4
;TIME_ELAPSED:35.862918
;LAYER:1
M106 S255
;TYPE:WALL-INNER
;MESH:xyzCalibration_cube.stl
G1 X100.6 Y119.4 E54.81
G1 X100.6 Y100.6 E55.59161
G1 X119.4 Y100.6 E56.37323
G1 X119.4 Y119.4 E57.15484
G0 F15000 X119.8 Y119.8
;TYPE:WALL-OUTER
G1 F9000 X100.2 Y119.8 E57.96971
G1 X100.2 Y100.2 E58.78459
G1 X119.8 Y100.2 E59.59946
G1 X119.8 Y119.8 E60.41433
G0 F15000 X119.53 Y119.53
G0 X119.29 Y119.01
G0 X119.01 Y119.01
;TYPE:SKIN
G1 F9000 X100.99 Y119.01 E61.16352
G1 X100.99 Y100.99 E61.9127
G1 X119.01 Y100.99 E62.66189
G1 X119.01 Y119.01 E63.41107
G1 F1500 E62.41107
G0 F15000 X119.29 Y119.01
G0 X100.782 Y119.218
G0 X100.71 Y101.365
G1 F1500 E63.41107
G0 F15000 X101.15 Y101.365
G1 F9000 X101.365 Y101.149 E63.42374
G0 F15000 X101.931 Y101.149
G1 F9000 X101.15 Y101.93 E63.46966
G0 F15000 X101.15 Y102.496
G1 F9000 X102.497 Y101.149 E63.54886
G0 F15000 X103.062 Y101.149
G1 F9000 X101.15 Y103.062 E63.66131
G0 F15000 X101.15 Y103.627
G1 F9000 X103.628 Y101.149 E63.807
G0 F15000 X104.194 Y101.149
G1 F9000 X101.15 Y104.193 E63.98598
G0 F15000 X101.15 Y104.759
G1 F9000 X104.759 Y101.149 E64.1982
G0 F15000 X105.325 Y101.149
G1 F9000 X101.15 Y105.324 E64.44368
G0 F15000 X101.15 Y105.89
G1 F9000 X105.891 Y101.149 E64.72243
G0 F15000 X106.457 Y101.149
G1 F9000 X101.15 Y106.456 E65.03446
G0 F15000 X101.15 Y107.022
G1 F9000 X107.022 Y101.149 E65.37974
G0 F15000 X107.588 Y101.149
G1 F9000 X101.15 Y107.587 E65.75827
G0 F15000 X101.15 Y108.153
G1 F9000 X108.154 Y101.149 E66.17008
G0 F15000 X108.719 Y101.149
G1 F9000 X101.15 Y108.719 E66.61514
G0 F15000 X101.15 Y109.284
G1 F9000 X109.285 Y101.149 E67.09345
G0 F15000 X109.851 Y101.149
G1 F9000 X101.15 Y109.85 E67.60503
G0 F15000 X101.15 Y110.416
G1 F9000 X110.416 Y101.149 E68.14987
G0 F15000 X110.982 Y101.149
G1 F9000 X101.15 Y110.981 E68.72795
G0 F15000 X101.15 Y111.547
G1 F9000 X111.548 Y101.149 E69.33931
G0 F15000 X112.113 Y101.149
G1 F9000 X101.15 Y112.113 E69.98392
G0 F15000 X101.15 Y112.678
G1 F9000 X112.679 Y101.149 E70.66178
G0 F15000 X113.245 Y101.149
G1 F9000 X101.15 Y113.244 E71.37292
G0 F15000 X101.15 Y113.81
G1 F9000 X113.81 Y101.149 E72.11731
G0 F15000 X114.376 Y101.149
G1 F9000 X101.15 Y114.375 E72.89495
G0 F15000 X101.15 Y114.941
G1 F9000 X114.942 Y101.149 E73.70587
G0 F15000 X115.508 Y101.149
G1 F9000 X101.15 Y115.507 E74.55006
G0 F15000 X101.15 Y116.072
G1 F9000 X116.073 Y101.149 E75.42748
G0 F15000 X116.639 Y101.149
G1 F9000 X101.15 Y116.638 E76.33817
G0 F15000 X101.15 Y117.204
G1 F9000 X117.205 Y101.149 E77.28214
G0 F15000 X117.77 Y101.149
G1 F9000 X101.15 Y117.77 E78.25937
G0 F15000 X101.15 Y118.335
G1 F9000 X118.336 Y101.149 E79.26984
G0 F15000 X118.849 Y101.202
G1 F9000 X101.201 Y118.849 E80.30744
G0 F15000 X101.767 Y118.849
G1 F9000 X118.849 Y101.768 E81.31177
G0 F15000 X118.849 Y102.333
G1 F9000 X102.333 Y118.849 E82.28285
G0 F15000 X102.898 Y118.849
G1 F9000 X118.849 Y102.899 E83.22068
G0 F15000 X118.849 Y103.465
G1 F9000 X103.464 Y118.849 E84.12523
G0 F15000 X104.03 Y118.849
G1 F9000 X118.849 Y104.03 E84.99653
G0 F15000 X118.849 Y104.596
G1 F9000 X104.595 Y118.849 E85.83458
G0 F15000 X105.161 Y118.849
G1 F9000 X118.849 Y105.162 E86.63935
G0 F15000 X118.849 Y105.728
G1 F9000 X105.727 Y118.849 E87.41084
G0 F15000 X106.292 Y118.849
G1 F9000 X118.849 Y106.293 E88.14912
G0 F15000 X118.849 Y106.859
G1 F9000 X106.858 Y118.849 E88.85411
G0 F15000 X107.424 Y118.849
G1 F9000 X118.849 Y107.425 E89.52583
G0 F15000 X118.849 Y107.99
G1 F9000 X107.99 Y118.849 E90.1643
G0 F15000 X108.555 Y118.849
G1 F9000 X118.849 Y108.556 E90.76952
G0 F15000 X118.849 Y109.122
G1 F9000 X109.121 Y118.849 E91.34146
G0 F15000 X109.687 Y118.849
G1 F9000 X118.849 Y109.687 E91.88015
G0 F15000 X118.849 Y110.253
G1 F9000 X110.252 Y118.849 E92.38559
G0 F15000 X110.818 Y118.849
G1 F9000 X118.849 Y110.819 E92.85775
G0 F15000 X118.849 Y111.384
G1 F9000 X111.384 Y118.849 E93.29666
G0 F15000 X111.949 Y118.849
G1 F9000 X118.849 Y111.95 E93.70233
G0 F15000 X118.849 Y112.516
G1 F9000 X112.515 Y118.849 E94.07471
G0 F15000 X113.081 Y118.849
G1 F9000 X118.849 Y113.081 E94.41385
G0 F15000 X118.849 Y113.647
G1 F9000 X113.646 Y118.849 E94.71974
G0 F15000 X114.212 Y118.849
G1 F9000 X118.849 Y114.213 E94.99234
G0 F15000 X118.849 Y114.778
G1 F9000 X114.778 Y118.849 E95.2317
G0 F15000 X115.343 Y118.849
G1 F9000 X118.849 Y115.344 E95.43781
G0 F15000 X118.849 Y115.91
G1 F9000 X115.909 Y118.849 E95.61064
G0 F15000 X116.475 Y118.849
G1 F9000 X118.849 Y116.476 E95.7502
G0 F15000 X118.849 Y117.041
G1 F9000 X117.041 Y118.849 E95.8565
G0 F15000 X117.606 Y118.849
G1 F9000 X118.849 Y117.607 E95.92956
G0 F15000 X118.849 Y118.173
G1 F9000 X118.172 Y118.849 E95.96933
G0 F15000 X118.738 Y118.849
G1 F9000 X118.849 Y118.738 E95.97586
G0 F15000 X119.2 Y118.738
;MESH:NONMESH
G0 F300 X119.2 Y118.738 Z0.75
G0 F15000 X119.4 Y119.4
;TIME_ELAPSED:60.869376
;LAYER:2
;TYPE:WALL-INNER
;MESH:xyzCalibration_cube.stl
G1 F9000 X100.6 Y119.4 E96.75747
G1 X100.6 Y100.6 E97.53908
G1 X119.4 Y100.6 E98.3207
G1 X119.4 Y119.4 E99.10231
G0 F15000 X119.8 Y119.8
;TYPE:WALL-OUTER
G1 F9000 X100.2 Y119.8 E99.91718
G1 X100.2 Y100.2 E100.73206
G1 X119.8 Y100.2 E101.54693
G1 X119.8 Y119.8 E102.3618
G0 F15000 X119.53 Y119.53
G0 X119.29 Y119.01
G0 X119.01 Y119.01
;TYPE:SKIN
G1 F9000 X100.99 Y119.01 E103.11099
G1 X100.99 Y100.99 E103.86017
G1 X119.01 Y100.99 E104.60936
G1 X119.01 Y119.01 E105.35854
G0 F15000 X119.29 Y119.01
G0 X119.29 Y101.313
G0 X118.849 Y101.313
G1 F9000 X118.686 Y101.15 E105.36813
G0 F15000 X118.12 Y101.15
G1 F9000 X118.849 Y101.879 E105.41099
G0 F15000 X118.849 Y102.444
